X: 1
T: Belgrave Square
M: 4/4
L: 1/8
R: hornpipe
K: Gmaj
|:ge|dBAB G2 GA|BGAG EGDE|GABd edBd|(3efg dB A2 ge|
dBAB G2 GA|BGAG EGDE|GABd edBd|(3efg dB G2:|
|:BA|GABd edBd|(3efg dB AGEF|GABd edBd|(3efg dB A2 BA|
GABd edBd|(3efg af gedB|dega bgag|(3efg dB G2:|
